symbols/web/fmd_bad/materialsymbolsoutlined/fmd_bad_wght600gradN25_20px.svg

<svg xmlns="http://www.w3.org/2000/svg" height="20" width="20"><path d="M9.083 9.438h1.834V5H9.083ZM10 12.583q.354 0 .635-.281.282-.281.282-.635 0-.355-.282-.636-.281-.281-.635-.281t-.635.281q-.282.281-.282.636 0 .354.282.635.281.281.635.281Zm0 3.125q2.417-2.229 3.552-4.02 1.136-1.792 1.136-3.188 0-2.188-1.344-3.521Q12 3.646 10 3.646q-1.979 0-3.333 1.333Q5.312 6.312 5.312 8.5q0 1.396 1.136 3.188 1.135 1.791 3.552 4.02Zm0 2.896q-3.479-3-5.188-5.469Q3.104 10.667 3.104 8.5q0-3.25 2.073-5.156Q7.25 1.438 10 1.438q2.75 0 4.823 1.906Q16.896 5.25 16.896 8.5q0 2.167-1.708 4.635-1.709 2.469-5.188 5.469ZM10 8.5Z"/></svg>

<svg xmlns="http://www.w3.org/2000/svg" height="20" width="20"><path d="M9.083 9.438H10.917V5H9.083ZM10 12.583Q10.354 12.583 10.635 12.302Q10.917 12.021 10.917 11.667Q10.917 11.312 10.635 11.031Q10.354 10.75 10 10.75Q9.646 10.75 9.365 11.031Q9.083 11.312 9.083 11.667Q9.083 12.021 9.365 12.302Q9.646 12.583 10 12.583ZM10 15.708Q12.417 13.479 13.552 11.688Q14.688 9.896 14.688 8.5Q14.688 6.312 13.344 4.979Q12 3.646 10 3.646Q8.021 3.646 6.667 4.979Q5.312 6.312 5.312 8.5Q5.312 9.896 6.448 11.688Q7.583 13.479 10 15.708ZM10 18.604Q6.521 15.604 4.812 13.135Q3.104 10.667 3.104 8.5Q3.104 5.25 5.177 3.344Q7.25 1.438 10 1.438Q12.75 1.438 14.823 3.344Q16.896 5.25 16.896 8.5Q16.896 10.667 15.188 13.135Q13.479 15.604 10 18.604ZM10 8.5Q10 8.5 10 8.5Q10 8.5 10 8.5Q10 8.5 10 8.5Q10 8.5 10 8.5Q10 8.5 10 8.5Q10 8.5 10 8.5Q10 8.5 10 8.5Q10 8.5 10 8.5Z"/></svg>
